X:172
T:Trip to Strasbourg
M:6/8
L:1/8
B:Thompson's Compleat Collection of 200 Favourite Country Dances, vol. 3 (London, 1773)
Z:Transcribed and edited by Flynn Titford-Mock, 2007
Z:abc's:AK/Fiddler's Companion
K:D
(FG).A.d | (FG).A.d | (FG).A.d | "tr"B2A2 | FGAB | cdef | gedc | d2d2 :|
|: fdge | fdge | fdcd eA A2 | fdge | fdge | fdec | d2d2 :|

